T: Ar Lan Y Mor
M: 4/4
L: 1/8
K: Gmaj
d2 d2- de d2- | d8 | B2 c2- cd c2 | B8 | d2 d2- de d2- | d8 | B2 c2- cd c2 | B8 |d2 d2 e2 d2- | d8 | B2 A2 G2 E2 | G8 | G2 G2 e2 d2- | d8 | B2 A2- AB AG- | G8 |d2 d2- de d2- | d8 | B2 c2 d2 cB- | B8 | d2 d2 e2 d2- | d8 | B2 c2 d2 cB- | B8 |d2 d2- de d2- | d8 | B2 A2- AG EG- | G8 | G2 G2 e2 d2- | d8 | B2 A2- AB AG- | G8 |]d2 d2- de d2- | d8 | B2 c2- cd c2 | B8 | ~ instead of ~ d2 d3 e d2- | d8 | B2 c3 d c2 | B8 | ~
